src/basic/400/u1F4DE-phone.svg

<svg width="21" height="32" viewBox="0 0 21 32" fill="none" xmlns="http://www.w3.org/2000/svg">
<path fill-rule="evenodd" clip-rule="evenodd" d="M1.33868,9.67262c0.00024,2.73968 0.83939,6.14408 2.54143,9.54748c1.70203,3.4033 3.92256,6.1169 6.11444,7.7605c2.21865,1.6637 4.26925,2.1406 5.73755,1.4063l1.7887,-0.8946l-3.131,-6.2607l-1.7888,0.8946c-1.0016,0.5009 -2.1882,0.0939 -3.20693,-0.6701c-1.04551,-0.784 -2.06251,-2.0417 -2.8308,-3.5779c-0.76829,-1.5362 -1.16451,-3.1044 -1.16462,-4.4112c-0.00011,-1.2734 0.38602,-2.4669 1.38759,-2.9678l1.78878,-0.89462l-3.13104,-6.26072l-1.78878,0.89458c-1.46821,0.73426 -2.31676,2.66107 -2.31652,5.43418zM12.1537,21.2318l2.236,-1.1182l0.4472,-0.2237l0.2236,0.4472l3.5784,7.1551l0.2236,0.4472l-0.4472,0.2237l-2.236,1.1182c-1.9894,0.995 -4.471,0.2344 -6.78468,-1.5006c-2.34047,-1.7551 -4.65249,-4.6013 -6.4089,-8.1133c-1.75642,-3.5121 -2.64679,-7.0693 -2.64704,-9.99469c-0.00025,-2.89197 0.87975,-5.3337 2.86923,-6.32866l2.23597,-1.11823l0.4472,-0.22364l0.22364,0.44719l3.57833,7.15511l0.22365,0.44722l-0.4472,0.2236l-2.23597,1.1182c-0.4803,0.2402 -0.83498,0.9189 -0.83488,2.0734c0.0001,1.1211 0.34511,2.5365 1.05901,3.964c0.7139,1.4275 1.63942,2.5526 2.53635,3.2252c0.92369,0.6926 1.67939,0.8159 2.15969,0.5757z" fill="black"/>
</svg>

<svg width="21" height="32" viewBox="0 0 21 32" fill="none" xmlns="http://www.w3.org/2000/svg">
<path fill-rule="evenodd" clip-rule="evenodd" d="M1.33868 9.67262C1.33892 12.4123 2.17807 15.8167 3.88011 19.2201C5.58214 22.6234 7.80267 25.337 9.99455 26.9806C12.2132 28.6443 14.2638 29.1212 15.7321 28.3869L17.5208 27.4923L14.3898 21.2316L12.601 22.1262C11.5994 22.6271 10.4128 22.2201 9.39407 21.4561C8.34856 20.6721 7.33156 19.4144 6.56327 17.8782C5.79498 16.342 5.39876 14.7738 5.39865 13.467C5.39854 12.1936 5.78467 11.0001 6.78624 10.4992L8.57502 9.60458L5.44398 3.34386L3.6552 4.23844C2.18699 4.9727 1.33844 6.89951 1.33868 9.67262ZM12.1537 21.2318L14.3897 20.1136L14.8369 19.8899L15.0605 20.3371L18.6389 27.4922L18.8625 27.9394L18.4153 28.1631L16.1793 29.2813C14.1899 30.2763 11.7083 29.5157 9.39462 27.7807C7.05415 26.0256 4.74213 23.1794 2.98572 19.6674C1.2293 16.1553 0.338933 12.5981 0.33868 9.67271C0.33843 6.78074 1.21843 4.33901 3.20791 3.34405L5.44388 2.22582L5.89108 2.00218L6.11472 2.44937L9.69305 9.60448L9.9167 10.0517L9.4695 10.2753L7.23353 11.3935C6.75323 11.6337 6.39855 12.3124 6.39865 13.4669C6.39875 14.588 6.74376 16.0034 7.45766 17.4309C8.17156 18.8584 9.09708 19.9835 9.99401 20.6561C10.9177 21.3487 11.6734 21.472 12.1537 21.2318Z" fill="black"/>
</svg>
